SVG Logos/APIs/envelop.svg

<svg width="228" height="90" viewBox="0 0 228 90" fill="none" xmlns="http://www.w3.org/2000/svg">
<path d="M15 25.675C15.7279 25.675 16.4195 25.8306 17.0433 26.1103L36.1439 15.125C37.0439 14.625 38.1439 14.325 39.1439 14.325C40.2439 14.325 41.2439 14.625 42.1439 15.125L58.5439 24.625C57.3439 25.425 56.4439 26.6249 55.8439 28.0249L39.9438 18.825C39.6439 18.625 39.344 18.625 39.0441 18.625C38.7441 18.625 38.4439 18.725 38.1439 18.825L19.8225 29.35C19.9382 29.772 20 30.2163 20 30.675C20 33.4365 17.7614 35.675 15 35.675C12.2386 35.675 10 33.4365 10 30.675C10 27.9136 12.2386 25.675 15 25.675Z" fill="#FF00E5"/>
<path d="M61.2438 35.3578C59.3487 34.6468 58 32.8184 58 30.675C58 27.9135 60.2386 25.675 63 25.675C65.7614 25.675 68 27.9135 68 30.675C68 32.5075 67.0142 34.1098 65.5439 34.9804V55.5249C65.5439 57.7249 64.3439 59.725 62.5439 60.825L46.1439 70.225C46.1439 68.725 45.6438 67.225 44.7438 66.125L60.3439 57.125C60.9439 56.825 61.2438 56.2249 61.2438 55.5249V35.3578Z" fill="#FF00E5"/>
<path d="M43.8439 69.4305C43.9458 69.8284 44 70.2454 44 70.675C44 73.4365 41.7614 75.675 39 75.675C36.5102 75.675 34.4454 73.8552 34.0633 71.473L15.8439 60.9249C13.9439 59.8249 12.8439 57.825 12.8439 55.625V37.125C13.5439 37.325 14.3439 37.5249 15.0439 37.5249C15.7439 37.5249 16.4439 37.425 17.0439 37.225V55.625C17.0439 56.325 17.4438 56.925 17.9438 57.225L35.3263 67.2833C36.2398 66.2943 37.5476 65.675 39 65.675C41.3291 65.675 43.2862 67.2675 43.8419 69.423L43.8436 69.4247L43.8439 69.4305Z" fill="#FF00E5"/>
<path fill-rule="evenodd" clip-rule="evenodd" d="M49.4971 29.9351C49.114 29.2712 48.157 29.2676 47.7688 29.9285L45.0519 34.5544C42.8145 33.6331 40.2154 33.7744 38.0589 35.0488L49.8605 42.7413C49.9622 41.8744 49.9203 40.9914 49.7315 40.1312L54.7588 38.2589C55.4771 37.9914 55.6397 37.0483 55.0525 36.5557L53.7347 35.4502C53.4704 35.2285 53.339 34.8863 53.3871 34.5447L53.4337 34.2135C53.5993 33.0375 52.7095 31.9771 51.5226 31.9359L51.1884 31.9243C50.8436 31.9124 50.5294 31.7236 50.357 31.4248L49.4971 29.9351ZM49.3553 44.7393L36.4048 36.2979L30.6199 41.1519C29.8848 41.7688 29.2909 42.4916 28.8419 43.2793L42.1845 51.9762L47.1055 47.847C48.1367 46.9817 48.8899 45.908 49.3553 44.7393ZM40.6224 53.2854L28.0856 45.1136C27.7551 46.3345 27.7212 47.6248 27.994 48.8677L22.9667 50.74C22.2483 51.0075 22.0857 51.9506 22.673 52.4432L23.9908 53.5487C24.255 53.7704 24.3864 54.1126 24.3383 54.4542L24.2917 54.7854C24.1262 55.9614 25.0159 57.0218 26.2028 57.063L26.5371 57.0746C26.8818 57.0865 27.1961 57.2753 27.3685 57.5741L28.2283 59.0638C28.6115 59.7277 29.5685 59.7313 29.9567 59.0704L32.6735 54.4446C35.2533 55.5068 38.3138 55.1564 40.6224 53.2854Z" fill="#FF00E5"/>
<path d="M82.44 46.55H96.816V41.918H87.24V39.518H95.112V35.174H87.24V32.486H96.816V27.83H82.44V46.55ZM104.659 46.55V36.11L113.011 46.55H117.067V27.83H112.291V38.294L103.939 27.83H99.8588V46.55H104.659ZM131.548 46.55L139.132 27.83H133.9L129.172 40.406L124.468 27.83H119.236L126.796 46.55H131.548ZM141.282 46.55H155.658V41.918H146.082V39.518H153.954V35.174H146.082V32.486H155.658V27.83H141.282V46.55ZM158.701 46.55H172.453V41.918H163.477V27.83H158.701V46.55ZM173.591 37.19C173.591 42.542 178.127 46.91 183.527 46.91C188.999 46.91 193.463 42.542 193.463 37.19C193.463 31.838 188.999 27.47 183.527 27.47C178.127 27.47 173.591 31.838 173.591 37.19ZM178.439 37.19C178.439 34.358 180.719 32.102 183.527 32.102C186.407 32.102 188.615 34.358 188.615 37.19C188.615 40.022 186.407 42.278 183.527 42.278C180.719 42.278 178.439 40.022 178.439 37.19ZM196.163 46.55H200.963V42.302H204.419C209.387 42.302 211.763 38.966 211.763 35.006C211.763 31.238 209.387 27.83 204.419 27.83H196.163V46.55ZM204.155 32.198C206.171 32.198 206.915 33.542 206.915 35.03C206.915 36.686 206.171 37.934 204.155 37.934H200.963V32.198H204.155Z" fill="#0B0D11"/>
<path fill-rule="evenodd" clip-rule="evenodd" d="M129.3 56.55C131.6 56.55 133.4 58.35 133.4 60.55C133.4 62.05 132.6 63.25 131.4 64.05C131.483 64.0918 131.563 64.1336 131.638 64.1735C131.925 64.3249 132.163 64.4501 132.4 64.4501H132.4C132.5 64.4501 132.9 64.4501 133.1 64.1501L134.6 65.3501C134 66.1501 133.1 66.4501 132.4 66.4501C131.446 66.4501 130.741 65.9523 130.051 65.4656C129.584 65.1361 129.125 64.8116 128.6 64.6501C126.7 64.3501 125.2 62.6501 125.2 60.6501C125.2 58.3501 127 56.55 129.3 56.55ZM129.3 62.6501C130.5 62.6501 131.4 61.75 131.4 60.55C131.4 59.35 130.5 58.4501 129.3 58.4501C128.1 58.4501 127.2 59.35 127.2 60.55C127.2 61.75 128.1 62.6501 129.3 62.6501ZM85 59.9501H88.7V64.4501H87.1V63.7501C86.7 64.3501 85.9 64.6501 85.1 64.6501C82.9 64.6501 81 62.8501 81 60.6501C81 58.4501 82.9 56.6501 85.1 56.6501C86.4 56.6501 87.6 57.2501 88.4 58.2501L86.8 59.3501C86.4 58.8501 85.8 58.55 85.1 58.55C83.9 58.55 83 59.4501 83 60.6501C83 61.8501 83.9 62.7501 85.1 62.7501C85.8 62.7501 86.4 62.4501 86.8 61.8501V61.6501H85V59.9501ZM94.4001 56.7502C96.4001 56.7502 97.3001 58.0502 97.3001 59.5502C97.3001 60.6502 96.8001 61.6503 95.8001 62.1503L97.5001 64.4502H95.1001L93.6001 62.3502H92.6001V64.4502H90.6001V56.7502H94.4001ZM92.6001 58.6503V60.6503H94.3001C95.1001 60.6503 95.4001 60.1503 95.4001 59.6503C95.4001 59.0503 95.1001 58.6503 94.3001 58.6503H92.6001ZM106.7 64.4502L103.6 56.7502H101.6L98.5 64.4502H100.7L101.1 63.3502H104.1L104.5 64.4502H106.7ZM101.7 61.5502L102.6 59.2502L103.4 61.5502H101.7ZM108.2 56.7502H111.6C113.7 56.7502 114.6 58.1502 114.6 59.7502C114.6 61.3502 113.6 62.7502 111.6 62.7502H110.2V64.5502H108.2V56.7502ZM110.2 58.5502V60.9502H111.5C112.3 60.9502 112.6 60.4502 112.6 59.7502C112.6 59.1502 112.3 58.5502 111.5 58.5502H110.2ZM123.5 64.4502V56.7502H121.5V59.7502H118.3V56.7502H116.3V64.4502H118.3V61.5502H121.5V64.4502H123.5ZM137.1 56.7502H135.1V64.4502H140.8V62.5502H137.1V56.7502Z" fill="#7F818C"/>
</svg>

<svg xmlns="http://www.w3.org/2000/svg" fill="none" viewBox="0 0 228 90"><path fill="#FF00E5" d="M15 25.675c.728 0 1.42.156 2.043.435l19.1-10.985c.9-.5 2-.8 3-.8 1.1 0 2.1.3 3 .8l16.4 9.5c-1.2.8-2.1 2-2.7 3.4l-15.9-9.2c-.3-.2-.599-.2-.899-.2-.3 0-.6.1-.9.2L19.823 29.35A5.005 5.005 0 0 1 15 35.675a5 5 0 1 1 0-10ZM61.244 35.358A5.002 5.002 0 0 1 63 25.675a5 5 0 0 1 2.544 9.305v20.545c0 2.2-1.2 4.2-3 5.3l-16.4 9.4c0-1.5-.5-3-1.4-4.1l15.6-9c.6-.3.9-.9.9-1.6V35.358ZM43.844 69.43a5 5 0 1 1-9.78 2.043l-18.22-10.548c-1.9-1.1-3-3.1-3-5.3v-18.5c.7.2 1.5.4 2.2.4.7 0 1.4-.1 2-.3v18.4c0 .7.4 1.3.9 1.6l17.382 10.058a5.002 5.002 0 0 1 8.516 2.14l.002.002v.005Z"/><path fill="#FF00E5" fill-rule="evenodd" d="M49.497 29.935a1 1 0 0 0-1.728-.006l-2.717 4.625a7.872 7.872 0 0 0-6.993.495L49.86 42.74c.101-.867.06-1.75-.13-2.61l5.028-1.872a1 1 0 0 0 .294-1.703l-1.318-1.106a1 1 0 0 1-.348-.905l.047-.331a2 2 0 0 0-1.911-2.278l-.335-.012a1 1 0 0 1-.831-.5l-.86-1.489Zm-.142 14.804-12.95-8.441-5.785 4.854a7.847 7.847 0 0 0-1.778 2.127l13.343 8.697 4.92-4.129a7.829 7.829 0 0 0 2.25-3.108Zm-8.733 8.546-12.536-8.171a7.9 7.9 0 0 0-.092 3.754l-5.027 1.872a1 1 0 0 0-.294 1.703l1.318 1.106a1 1 0 0 1 .347.905l-.046.331a2 2 0 0 0 1.91 2.278l.335.012a1 1 0 0 1 .832.5l.86 1.489a1 1 0 0 0 1.728.006l2.716-4.625a7.862 7.862 0 0 0 7.95-1.16Z" clip-rule="evenodd"/><path fill="#0B0D11" d="M82.44 46.55h14.376v-4.632H87.24v-2.4h7.872v-4.344H87.24v-2.688h9.576V27.83H82.44v18.72Zm22.219 0V36.11l8.352 10.44h4.056V27.83h-4.776v10.464l-8.352-10.464h-4.08v18.72h4.8Zm26.889 0 7.584-18.72H133.9l-4.728 12.576-4.704-12.576h-5.232l7.56 18.72h4.752Zm9.734 0h14.376v-4.632h-9.576v-2.4h7.872v-4.344h-7.872v-2.688h9.576V27.83h-14.376v18.72Zm17.419 0h13.752v-4.632h-8.976V27.83h-4.776v18.72Zm14.89-9.36c0 5.352 4.536 9.72 9.936 9.72 5.472 0 9.936-4.368 9.936-9.72s-4.464-9.72-9.936-9.72c-5.4 0-9.936 4.368-9.936 9.72Zm4.848 0a5.075 5.075 0 0 1 5.088-5.088c2.88 0 5.088 2.256 5.088 5.088 0 2.832-2.208 5.088-5.088 5.088a5.075 5.075 0 0 1-5.088-5.088Zm17.724 9.36h4.8v-4.248h3.456c4.968 0 7.344-3.336 7.344-7.296 0-3.768-2.376-7.176-7.344-7.176h-8.256v18.72Zm7.992-14.352c2.016 0 2.76 1.344 2.76 2.832 0 1.656-.744 2.904-2.76 2.904h-3.192v-5.736h3.192Z"/><path fill="#7F818C" fill-rule="evenodd" d="M129.3 56.55c2.3 0 4.1 1.8 4.1 4 0 1.5-.8 2.7-2 3.5.083.042.163.084.238.124.287.15.525.276.762.276.1 0 .5 0 .7-.3l1.5 1.2c-.6.8-1.5 1.1-2.2 1.1-.954 0-1.659-.498-2.349-.984-.467-.33-.926-.654-1.451-.816-1.9-.3-3.4-2-3.4-4 0-2.3 1.8-4.1 4.1-4.1Zm0 6.1c1.2 0 2.1-.9 2.1-2.1 0-1.2-.9-2.1-2.1-2.1-1.2 0-2.1.9-2.1 2.1 0 1.2.9 2.1 2.1 2.1ZM85 59.95h3.7v4.5h-1.6v-.7c-.4.6-1.2.9-2 .9-2.2 0-4.1-1.8-4.1-4s1.9-4 4.1-4c1.3 0 2.5.6 3.3 1.6l-1.6 1.1c-.4-.5-1-.8-1.7-.8-1.2 0-2.1.9-2.1 2.1 0 1.2.9 2.1 2.1 2.1.7 0 1.3-.3 1.7-.9v-.2H85v-1.7Zm9.4-3.2c2 0 2.9 1.3 2.9 2.8 0 1.1-.5 2.1-1.5 2.6l1.7 2.3h-2.4l-1.5-2.1h-1v2.1h-2v-7.7h3.8Zm-1.8 1.9v2h1.7c.8 0 1.1-.5 1.1-1 0-.6-.3-1-1.1-1h-1.7Zm14.1 5.8-3.1-7.7h-2l-3.1 7.7h2.2l.4-1.1h3l.4 1.1h2.2Zm-5-2.9.9-2.3.8 2.3h-1.7Zm6.5-4.8h3.4c2.1 0 3 1.4 3 3s-1 3-3 3h-1.4v1.8h-2v-7.8Zm2 1.8v2.4h1.3c.8 0 1.1-.5 1.1-1.2 0-.6-.3-1.2-1.1-1.2h-1.3Zm13.3 5.9v-7.7h-2v3h-3.2v-3h-2v7.7h2v-2.9h3.2v2.9h2Zm13.6-7.7h-2v7.7h5.7v-1.9h-3.7v-5.8Z" clip-rule="evenodd"/></svg>
